X:1
T:am
T:am
T:am
L:1/8
M:4/4
I:linebreak $
K:D
V:1 treble nm="dele" snm="dele"
V:1
 a4 g4 | efed c2 cd | e2 f2 g2 a2 | g2 e2 e4 | a4 g4 | efed c2 [Dc]2 |$ e2 f2 gfed |1 c2 A2 A4 :|2 %8
 c2 A2 A2 AB || |: cBAc BAGB | ABAG E2 (3E^FG | A2 B2 c2 d2 |$ e4 e2 AB | =cBAc BAGB | ABAG E2 AB | %16
 =cBAc BAGB | A4 A4 :| %18
